icons/.local/share/icons/Tela/symbolic/actions/address-book-new-symbolic.svg

<?xml version="1.0" encoding="UTF-8"?>
<svg width="16" height="16" version="1.1" xmlns="http://www.w3.org/2000/svg">
 <path d="m8 4c2.21 0 4 1.79 4 4v0.5c0 0.83-0.67 1.5-1.5 1.5-0.44 0-0.86-0.2-1.15-0.53-0.35 0.32-0.83 0.53-1.35 0.53-1.1 0-2-0.9-2-2s0.9-2 2-2 2 0.9 2 2v0.5c0 0.28 0.22 0.5 0.5 0.5s0.5-0.22 0.5-0.5v-0.5c0-1.66-1.34-3-3-3s-3 1.34-3 3 1.34 3 3 3h2.5s0.5 0 0.5 0.5c-0.03 0.5-0.5 0.5-0.5 0.5h-2.5c-2.21 0-4-1.79-4-4s1.79-4 4-4zm0 3c-0.55 0-1 0.45-1 1s0.45 1 1 1 1-0.45 1-1-0.45-1-1-1z" fill="#565656"/>
 <path d="m3 1c-1.108 0-2 0.892-2 2v10c0 1.108 0.892 2 2 2h10c1.108 0 2-0.892 2-2v-10c0-1.108-0.892-2-2-2zm0 2h10v10h-10z" fill="#565656" stroke-linecap="round" stroke-linejoin="round" stroke-width="2"/>
</svg>

<svg xmlns="http://www.w3.org/2000/svg" width="16" height="16" version="1.1">
 <path style="fill:#555555" d="M 3,1 C 1.89,1 1,1.89 1,3 V 13 C 1,14.11 1.89,15 3,15 H 13 C 14.11,15 15,14.11 15,13 V 3 C 15,1.89 14.11,1 13,1 Z M 8,4 C 10.21,4 12,5.79 12,8 V 8.5 C 12,9.33 11.33,10 10.5,10 10.06,10 9.64,9.8 9.35,9.46 9,9.79 8.52,10 8,10 6.9,10 6,9.1 6,8 6,6.9 6.9,6 8,6 9.1,6 10,6.9 10,8 V 8.5 C 10,8.78 10.22,9 10.5,9 10.78,9 11,8.78 11,8.5 V 8 C 11,6.34 9.66,5 8,5 6.34,5 5,6.34 5,8 5,9.66 6.34,11 8,11 H 10.5 C 10.5,11 11,11 11,11.5 10.97,12 10.5,12 10.5,12 H 8 C 5.79,12 4,10.21 4,8 4,5.79 5.79,4 8,4 Z M 8,7 C 7.45,7 7,7.45 7,8 7,8.55 7.45,9 8,9 8.55,9 9,8.55 9,8 9,7.45 8.55,7 8,7 Z"/>
</svg>
